styles/2/Numix/128/places/red-folder-recent.svg

<?xml version="1.0" encoding="UTF-8" standalone="no"?>
<svg
   xmlns:dc="http://purl.org/dc/elements/1.1/"
   xmlns:cc="http://creativecommons.org/ns#"
   xmlns:rdf="http://www.w3.org/1999/02/22-rdf-syntax-ns#"
   xmlns:svg="http://www.w3.org/2000/svg"
   xmlns="http://www.w3.org/2000/svg"
   xmlns:sodipodi="http://sodipodi.sourceforge.net/DTD/sodipodi-0.dtd"
   xmlns:inkscape="http://www.inkscape.org/namespaces/inkscape"
   width="128px"
   height="128px"
   viewBox="0 0 128 128"
   version="1.1"
   id="svg3007"
   inkscape:version="0.91 r"
   sodipodi:docname="red-folder-recent.svg">
  <metadata
     id="metadata3020">
    <rdf:RDF>
      <cc:Work
         rdf:about="">
        <dc:format>image/svg+xml</dc:format>
        <dc:type
           rdf:resource="http://purl.org/dc/dcmitype/StillImage" />
      </cc:Work>
    </rdf:RDF>
  </metadata>
  <defs
     id="defs3018" />
  <sodipodi:namedview
     pagecolor="#ffffff"
     bordercolor="#666666"
     borderopacity="1"
     objecttolerance="10"
     gridtolerance="10"
     guidetolerance="10"
     inkscape:pageopacity="0"
     inkscape:pageshadow="2"
     inkscape:window-width="668"
     inkscape:window-height="480"
     id="namedview3016"
     showgrid="false"
     inkscape:zoom="1.84375"
     inkscape:cx="64"
     inkscape:cy="64"
     inkscape:window-x="0"
     inkscape:window-y="0"
     inkscape:window-maximized="0"
     inkscape:current-layer="svg3007" />
  <path
     inkscape:connector-curvature="0"
     id="path3010"
     d="m 18,16 c -2.929688,0 -6,3.023438 -6,6 l 0,2 -6,0 c -2.941406,0 -6,2.992188 -6,6 l 0,76 c 0,4 2,6 6,6 l 116,0 c 3.13672,0 6,-2.71484 6,-6 l 0,-66 c 0,-3.011719 -2.91016,-6 -6,-6 l -6,0 0,-12 c 0,-2.921875 -2.90625,-6 -6,-6 z m 0,0"
     style="fill:#ef5350;fill-opacity:1;fill-rule:nonzero;stroke:none" />
  <path
     inkscape:connector-curvature="0"
     id="path3012"
     d="m 18,16 c -2.929688,0 -6,3.023438 -6,6 l 0,2 -6,0 c -2.941406,0 -6,2.992188 -6,6 l 0,76 c 0,4 2,6 6,6 l 116,0 c 3.13672,0 6,-2.71484 6,-6 l 0,-66 c 0,-3.011719 -2.91016,-6 -6,-6 l -6,0 0,-12 c 0,-2.921875 -2.90625,-6 -6,-6 z M 6,28 74,28 c 1.179688,0 2,1.03125 2,2 l 0,8 46,0 c 1.01172,0 2,1.015625 2,2 l 0,66 c 0,1.04297 -0.95703,2 -2,2 L 6,108 c -0.929688,0 -2,-0.79297 -2,-2 L 4,30 c 0,-0.984375 1.03125,-2 2,-2 z m 0,0"
     style="fill:#000000;fill-opacity:0.32156899;fill-rule:nonzero;stroke:none" />
  <path
     inkscape:connector-curvature="0"
     id="path3014"
     d="m 36,46 0,20 20,0 -7.5625,-7.5625 C 52.421875,54.457031 57.925781,52 64,52 76.148438,52 86,61.851562 86,74 86,86.148438 76.148438,96 64,96 51.851562,96 42,86.148438 42,74 c 0,-0.675781 0.06641,-1.339844 0.125,-2 l -6.0625,0 C 36.015625,72.660156 36,73.328125 36,74 36,89.464844 48.535156,102 64,102 79.464844,102 92,89.464844 92,74 92,58.535156 79.464844,46 64,46 56.257812,46 49.253906,49.109375 44.1875,54.1875 z m 27.625,9.875 c -0.167969,0.03125 -0.335938,0.07422 -0.5,0.125 -1.863281,0.417969 -3.171875,2.09375 -3.125,4 l 0,14.75 c -0.0078,0.125 -0.0078,0.25 0,0.375 -0.234375,1.027344 -0.05469,2.105469 0.5,3 0.03906,0.04297 0.08203,0.08594 0.125,0.125 0.03906,0.08594 0.08203,0.167969 0.125,0.25 0.03906,0.04297 0.08203,0.08594 0.125,0.125 0.03906,0.04297 0.08203,0.08594 0.125,0.125 0.03906,0.04297 0.08203,0.08594 0.125,0.125 0.03906,0.04297 0.08203,0.08594 0.125,0.125 0.08203,0.04297 0.164062,0.08594 0.25,0.125 0.03906,0.04297 0.08203,0.08594 0.125,0.125 0.03906,0.04297 0.08203,0.08594 0.125,0.125 0.08203,0.04297 0.164062,0.08594 0.25,0.125 0.160156,0.09375 0.328125,0.179688 0.5,0.25 l 9.875,5.75 c 1.933594,1.105469 4.394531,0.433594 5.5,-1.5 1.105469,-1.933594 0.433594,-4.394531 -1.5,-5.5 L 68,73.625 68,60 C 68.039062,58.847656 67.585938,57.738281 66.746094,56.945312 65.910156,56.15625 64.769531,55.765625 63.625,55.875 z m 0,0"
     style="fill:#000000;fill-opacity:0.32156899;fill-rule:nonzero;stroke:none" />
</svg>

<svg xmlns="http://www.w3.org/2000/svg" viewBox="0 0 128 128">
 <path d="m 18 16 c -2.93 0 -6 3.02 -6 6 l 0 2 -6 0 c -2.941 0 -6 2.992 -6 6 l 0 76 c 0 4 2 6 6 6 l 116 0 c 3.137 0 6 -2.715 6 -6 l 0 -66 c 0 -3.01 -2.91 -6 -6 -6 l -6 0 0 -12 c 0 -2.922 -2.906 -6 -6 -6 z m 0 0" style="fill:#ef5350;fill-opacity:1;stroke:none;fill-rule:nonzero"/>
 <path d="m 18 16 c -2.93 0 -6 3.02 -6 6 l 0 2 -6 0 c -2.941 0 -6 2.992 -6 6 l 0 76 c 0 4 2 6 6 6 l 116 0 c 3.137 0 6 -2.715 6 -6 l 0 -66 c 0 -3.01 -2.91 -6 -6 -6 l -6 0 0 -12 c 0 -2.922 -2.906 -6 -6 -6 z m -12 12 68 0 c 1.18 0 2 1.031 2 2 l 0 8 46 0 c 1.012 0 2 1.016 2 2 l 0 66 c 0 1.043 -0.957 2 -2 2 l -116 0 c -0.93 0 -2 -0.793 -2 -2 l 0 -76 c 0 -0.984 1.031 -2 2 -2 z m 0 0" style="fill:#000;fill-opacity:0.322;stroke:none;fill-rule:nonzero"/>
 <path d="m 36 46 0 20 20 0 -7.563 -7.563 c 3.984 -3.98 9.488 -6.438 15.563 -6.438 12.148 0 22 9.852 22 22 0 12.148 -9.852 22 -22 22 -12.148 0 -22 -9.852 -22 -22 c 0 -0.676 0.066 -1.34 0.125 -2 l -6.06 0 c -0.047 0.66 -0.063 1.328 -0.063 2 0 15.465 12.535 28 28 28 15.465 0 28 -12.535 28 -28 0 -15.465 -12.535 -28 -28 -28 -7.742 0 -14.746 3.109 -19.813 8.188 z m 27.625 9.875 c -0.168 0.031 -0.336 0.074 -0.5 0.125 -1.863 0.418 -3.172 2.094 -3.125 4 l 0 14.75 c -0.008 0.125 -0.008 0.25 0 0.375 -0.234 1.027 -0.055 2.105 0.5 3 0.039 0.043 0.082 0.086 0.125 0.125 0.039 0.086 0.082 0.168 0.125 0.25 0.039 0.043 0.082 0.086 0.125 0.125 0.039 0.043 0.082 0.086 0.125 0.125 0.039 0.043 0.082 0.086 0.125 0.125 0.039 0.043 0.082 0.086 0.125 0.125 0.082 0.043 0.164 0.086 0.25 0.125 0.039 0.043 0.082 0.086 0.125 0.125 0.039 0.043 0.082 0.086 0.125 0.125 0.082 0.043 0.164 0.086 0.25 0.125 0.16 0.094 0.328 0.18 0.5 0.25 l 9.875 5.75 c 1.934 1.105 4.395 0.434 5.5 -1.5 1.105 -1.934 0.434 -4.395 -1.5 -5.5 l -8.375 -4.875 0 -13.625 c 0.039 -1.152 -0.414 -2.262 -1.254 -3.055 -0.836 -0.789 -1.977 -1.18 -3.121 -1.07 z m 0 0" style="fill:#000;fill-opacity:0.322;stroke:none;fill-rule:nonzero"/>
</svg>
